X: 14
T:Miss Cameron's Reel -- Banff
B:William Marshall's Scottish Airs, Melodies, Strathspeys, Reels &c (1822)
C:William Marshall
L:1/8
M:C
O:Scotland
R:Reel
Z:Clark Bernst + Richard Robinson
%%Page:15 - 2
F:http://richardrobinson.tunebook.org.uk/tune/3857
%%TBL:{"version":1,"type":"tune","id":"3857"}
K:A
%%staves {1 2}
V:1
e  | \
(ag)(ae) (!trill!fe)dc | fBdB bBdf | (ag)ae (!trill!fe)dc | eagb aAc :|
e | \
aAcA eAcA | fBdB bBdf | aAcA eAcA | eagb aAce | 
aAcA eAcA | fBdB bBdf | efgb (ag)fe  | (!trill!fg)(af) eAc |]
V:2 middle=d clef=bass
L:1/4
z/ | aaaa | bbbb | aaaa | eeaa/ :| \
z/ | AAAA| BBBB | AAAA | eeAA | AAAA | BBBB | AeAc | ddAA/ |]

